images/logo.svg

<svg width="804" height="108" viewBox="0 0 804 108" fill="none" xmlns="http://www.w3.org/2000/svg">
<path d="M87.34 0.259992C84.26 0.259992 82.3 1.66 81.04 3.76H20.7C19.58 1.66 17.48 0.259992 14.54 0.259992C6.84 0.259992 0.26 14.4 0.26 27.98C0.26 36.38 3.48 40.72 7.82 40.72C12.02 40.72 14.26 37.36 16.64 30.78C17.9 27.14 19.44 23.36 21.12 20.98C22.8 18.46 26.44 17.62 31.06 17.62H32.32C35.4 17.62 36.1 21.54 36.1 32.6V80.62C36.1 85.94 35.4 89.58 32.32 90.56C27.28 91.68 24.34 93.22 24.34 96.86C24.34 103.3 34.56 105.12 50.94 105.12C67.18 105.12 77.4 103.3 77.4 96.86C77.4 93.22 74.6 91.68 69.56 90.42C66.48 89.44 65.64 85.94 65.64 80.62V32.6C65.64 21.54 66.34 17.62 69.42 17.62H70.68C75.3 17.62 78.94 18.46 80.62 20.98C82.3 23.5 83.84 27.14 85.1 30.78C87.48 37.36 89.72 40.72 93.92 40.72C98.26 40.72 101.62 36.38 101.62 27.98C101.62 14.4 94.9 0.259992 87.34 0.259992ZM211.343 90.7C208.823 89.86 208.543 86.08 208.543 80.76V27C208.543 21.68 208.823 17.9 211.343 17.06C215.543 15.94 218.063 14.4 218.063 10.9C218.063 4.59999 208.683 2.63999 193.703 2.63999C178.863 2.63999 169.483 4.59999 169.483 10.9C169.483 14.4 172.003 15.94 176.203 17.06C178.723 18.04 179.003 21.68 179.003 27V44.78C178.303 46.04 177.603 46.32 171.723 46.32H151.983C146.103 46.32 145.403 46.04 144.703 44.78V27C144.703 21.68 144.983 17.9 147.503 17.06C151.703 15.94 154.223 14.4 154.223 10.9C154.223 4.59999 144.983 2.63999 130.003 2.63999C115.023 2.63999 105.783 4.59999 105.783 10.9C105.783 14.4 108.303 15.94 112.363 17.06C114.883 18.04 115.303 21.68 115.303 27V80.76C115.303 86.08 114.883 89.72 112.363 90.7C108.303 91.82 105.783 93.36 105.783 96.86C105.783 103.3 115.023 105.12 130.003 105.12C144.983 105.12 154.223 103.3 154.223 96.86C154.223 93.36 151.703 91.82 147.503 90.7C144.983 89.86 144.703 86.08 144.703 80.76V62.28C145.403 61.02 146.103 60.74 151.983 60.74H171.723C177.603 60.74 178.303 61.02 179.003 62.28V80.76C179.003 86.08 178.723 89.72 176.203 90.7C172.003 91.82 169.483 93.36 169.483 96.86C169.483 103.3 178.863 105.12 193.703 105.12C208.683 105.12 218.063 103.3 218.063 96.86C218.063 93.36 215.543 91.82 211.343 90.7ZM309.758 67.18C305.558 67.18 303.038 70.96 301.218 76.14C299.818 80.62 298.418 84.4 296.458 86.5C294.218 88.88 289.178 90.28 279.098 90.28H269.998C264.678 90.28 264.118 86.78 264.118 75.86V59.76C276.018 59.76 281.758 60.6 282.178 63.4C282.738 68.86 283.718 71.66 288.198 71.66C293.938 71.66 296.598 63.26 296.458 53.18C296.458 42.82 293.938 34.56 288.198 34.56C283.718 34.56 282.598 37.64 282.178 43.1C281.898 46.04 275.878 46.88 264.118 46.88V31.06C264.118 20.84 264.818 17.48 270.138 17.48H279.098C288.198 17.48 292.818 18.6 294.918 20.56C296.458 22.1 297.718 24.76 299.258 28.96C301.078 33.58 303.038 36.38 306.958 36.38C310.878 36.38 314.238 32.46 314.238 24.34C314.238 12.44 308.358 0.259992 301.358 0.259992C298.698 0.259992 296.598 1.66 295.478 3.76H262.858C255.718 3.76 249.418 3.47999 244.238 3.47999C231.218 3.47999 224.778 5.29999 224.778 10.9C224.778 14.82 228.138 16.64 232.198 17.48C234.858 18.46 235.138 22.24 235.138 27.42V80.34C235.138 85.52 234.718 89.44 232.058 90.28C227.998 91.26 224.638 92.94 224.638 96.86C224.638 102.6 231.218 104.28 244.238 104.28C248.858 104.28 255.438 104 262.858 104H296.598C297.858 106.24 299.958 107.64 303.038 107.64C310.738 107.64 317.318 92.66 317.318 79.64C317.318 71.24 314.098 67.18 309.758 67.18ZM458.153 90.7C455.633 89.86 455.353 86.08 455.353 80.76V27C455.353 21.68 455.633 17.9 458.153 17.06C462.353 15.94 464.873 14.4 464.873 10.9C464.873 4.59999 455.493 2.63999 440.513 2.63999C425.673 2.63999 416.293 4.59999 416.293 10.9C416.293 14.4 418.813 15.94 423.013 17.06C425.533 18.04 425.813 21.68 425.813 27V44.78C425.113 46.04 424.413 46.32 418.533 46.32H398.793C392.913 46.32 392.213 46.04 391.513 44.78V27C391.513 21.68 391.793 17.9 394.313 17.06C398.513 15.94 401.033 14.4 401.033 10.9C401.033 4.59999 391.793 2.63999 376.813 2.63999C361.833 2.63999 352.593 4.59999 352.593 10.9C352.593 14.4 355.113 15.94 359.173 17.06C361.693 18.04 362.113 21.68 362.113 27V80.76C362.113 86.08 361.693 89.72 359.173 90.7C355.113 91.82 352.593 93.36 352.593 96.86C352.593 103.3 361.833 105.12 376.813 105.12C391.793 105.12 401.033 103.3 401.033 96.86C401.033 93.36 398.513 91.82 394.313 90.7C391.793 89.86 391.513 86.08 391.513 80.76V62.28C392.213 61.02 392.913 60.74 398.793 60.74H418.533C424.413 60.74 425.113 61.02 425.813 62.28V80.76C425.813 86.08 425.533 89.72 423.013 90.7C418.813 91.82 416.293 93.36 416.293 96.86C416.293 103.3 425.673 105.12 440.513 105.12C455.493 105.12 464.873 103.3 464.873 96.86C464.873 93.36 462.353 91.82 458.153 90.7ZM571.409 64.94V31.62C571.409 22.66 572.109 18.6 575.609 17.06C579.669 16.08 583.169 14.54 583.169 10.62C583.169 4.59999 573.649 2.63999 562.589 2.63999C550.689 2.63999 541.169 4.59999 541.169 10.9C541.169 14.68 544.809 16.36 549.709 17.2C554.469 18.6 555.169 22.66 555.169 31.62V64.94C555.169 79.64 545.229 87.48 531.229 87.48C516.949 87.48 508.269 79.64 508.269 64.94V27.28C508.269 22.66 508.549 18.32 511.349 17.2C515.689 16.22 518.629 14.68 518.629 10.9C518.629 4.59999 508.829 2.63999 493.569 2.63999C478.589 2.63999 469.209 4.59999 469.209 10.9C469.209 14.54 471.869 15.94 475.929 17.06C478.449 18.04 478.869 21.4 478.869 27V65.92C478.869 92.52 498.749 105.96 525.209 105.96C554.329 105.96 571.409 89.72 571.409 64.94ZM680.1 2.63999C667.36 2.63999 658.68 4.88 658.68 11.18C658.68 14.82 662.04 16.78 667.22 18.18C671 19.44 671.98 24.06 671.98 32.6V53.32C671.98 56.26 671.84 58.78 671.7 60.88C660.22 47.72 645.24 28.82 631.1 12.72C623.82 4.88 620.04 2.91999 607.72 2.91999C594.42 2.91999 587.14 5.02 587.14 11.04C587.14 14.96 591.2 16.92 595.82 18.32C598.76 19.44 599.88 23.64 599.88 29.1V75.16C599.88 82.44 599.46 88.46 596.24 89.58C591.06 90.84 587.98 92.94 587.98 96.58C587.98 102.88 596.66 105.12 608 105.12C620.74 105.12 629.42 102.88 629.42 96.58C629.42 92.94 626.06 90.98 620.88 89.58C617.1 88.32 616.12 83.7 616.12 75.16V54.58C616.12 49.96 616.12 44.78 616.4 40.16C628.44 53.04 648.32 76.84 662.6 93.92C668.62 100.64 672.96 105.4 678.98 105.4C685 105.4 688.64 101.48 688.64 94.48C688.64 87.06 688.22 76.42 688.22 66.2V32.6C688.22 25.32 688.64 19.3 691.86 18.18C697.18 16.92 700.26 14.82 700.26 11.18C700.26 4.88 691.44 2.63999 680.1 2.63999ZM789.378 0.259992C786.298 0.259992 784.338 1.66 783.078 3.76H722.738C721.618 1.66 719.518 0.259992 716.578 0.259992C708.878 0.259992 702.298 14.4 702.298 27.98C702.298 36.38 705.518 40.72 709.858 40.72C714.058 40.72 716.298 37.36 718.678 30.78C719.938 27.14 721.478 23.36 723.158 20.98C724.838 18.46 728.478 17.62 733.098 17.62H734.358C737.438 17.62 738.138 21.54 738.138 32.6V80.62C738.138 85.94 737.438 89.58 734.358 90.56C729.318 91.68 726.378 93.22 726.378 96.86C726.378 103.3 736.598 105.12 752.978 105.12C769.218 105.12 779.438 103.3 779.438 96.86C779.438 93.22 776.638 91.68 771.598 90.42C768.518 89.44 767.678 85.94 767.678 80.62V32.6C767.678 21.54 768.378 17.62 771.458 17.62H772.718C777.338 17.62 780.978 18.46 782.658 20.98C784.338 23.5 785.878 27.14 787.138 30.78C789.518 37.36 791.758 40.72 795.958 40.72C800.298 40.72 803.658 36.38 803.658 27.98C803.658 14.4 796.938 0.259992 789.378 0.259992Z" fill="white"/>
</svg>

<?xml version="1.0" encoding="utf-8"?>
<!-- Generator: Adobe Illustrator 24.2.3, SVG Export Plug-In . SVG Version: 6.00 Build 0)  -->
<svg version="1.1" id="Livello_1" xmlns="http://www.w3.org/2000/svg" xmlns:xlink="http://www.w3.org/1999/xlink" x="0px" y="0px"
	 viewBox="0 0 804 108" style="enable-background:new 0 0 804 108;" xml:space="preserve">
<style type="text/css">
	.st0{fill:#F9EDE0;}
</style>
<path class="st0" d="M87.3,0.3c-3.1,0-5,1.4-6.3,3.5H20.7c-1.1-2.1-3.2-3.5-6.2-3.5C6.8,0.3,0.3,14.4,0.3,28
	c0,8.4,3.2,12.7,7.6,12.7c4.2,0,6.4-3.4,8.8-9.9c1.3-3.6,2.8-7.4,4.5-9.8c1.7-2.5,5.3-3.4,9.9-3.4h1.3c3.1,0,3.8,3.9,3.8,15v48
	c0,5.3-0.7,9-3.8,9.9c-5,1.1-8,2.7-8,6.3c0,6.4,10.2,8.3,26.6,8.3c16.2,0,26.5-1.8,26.5-8.3c0-3.6-2.8-5.2-7.8-6.4
	c-3.1-1-3.9-4.5-3.9-9.8v-48c0-11.1,0.7-15,3.8-15h1.3c4.6,0,8.3,0.8,9.9,3.4s3.2,6.2,4.5,9.8c2.4,6.6,4.6,9.9,8.8,9.9
	c4.3,0,7.7-4.3,7.7-12.7C101.6,14.4,94.9,0.3,87.3,0.3z M211.3,90.7c-2.5-0.8-2.8-4.6-2.8-9.9V27c0-5.3,0.3-9.1,2.8-9.9
	c4.2-1.1,6.7-2.7,6.7-6.2c0-6.3-9.4-8.3-24.4-8.3c-14.8,0-24.2,2-24.2,8.3c0,3.5,2.5,5,6.7,6.2c2.5,1,2.8,4.6,2.8,9.9v17.8
	c-0.7,1.3-1.4,1.5-7.3,1.5H152c-5.9,0-6.6-0.3-7.3-1.5V27c0-5.3,0.3-9.1,2.8-9.9c4.2-1.1,6.7-2.7,6.7-6.2c0-6.3-9.2-8.3-24.2-8.3
	s-24.2,2-24.2,8.3c0,3.5,2.5,5,6.6,6.2c2.5,1,2.9,4.6,2.9,9.9v53.8c0,5.3-0.4,9-2.9,9.9c-4.1,1.1-6.6,2.7-6.6,6.2
	c0,6.4,9.2,8.3,24.2,8.3s24.2-1.8,24.2-8.3c0-3.5-2.5-5-6.7-6.2c-2.5-0.8-2.8-4.6-2.8-9.9V62.3c0.7-1.3,1.4-1.5,7.3-1.5h19.7
	c5.9,0,6.6,0.3,7.3,1.5v18.5c0,5.3-0.3,9-2.8,9.9c-4.2,1.1-6.7,2.7-6.7,6.2c0,6.4,9.4,8.3,24.2,8.3c15,0,24.4-1.8,24.4-8.3
	C218.1,93.4,215.5,91.8,211.3,90.7z M309.8,67.2c-4.2,0-6.7,3.8-8.5,9c-1.4,4.5-2.8,8.3-4.8,10.4c-2.2,2.4-7.3,3.8-17.4,3.8H270
	c-5.3,0-5.9-3.5-5.9-14.4V59.8c11.9,0,17.6,0.8,18.1,3.6c0.6,5.5,1.5,8.3,6,8.3c5.7,0,8.4-8.4,8.3-18.5c0-10.4-2.5-18.6-8.3-18.6
	c-4.5,0-5.6,3.1-6,8.5c-0.3,2.9-6.3,3.8-18.1,3.8V31.1c0-10.2,0.7-13.6,6-13.6h9c9.1,0,13.7,1.1,15.8,3.1c1.5,1.5,2.8,4.2,4.3,8.4
	c1.8,4.6,3.8,7.4,7.7,7.4c3.9,0,7.3-3.9,7.3-12c0-11.9-5.9-24.1-12.9-24.1c-2.7,0-4.8,1.4-5.9,3.5h-32.6c-7.1,0-13.4-0.3-18.6-0.3
	c-13,0-19.5,1.8-19.5,7.4c0,3.9,3.4,5.7,7.4,6.6c2.7,1,2.9,4.8,2.9,9.9v52.9c0,5.2-0.4,9.1-3.1,9.9c-4.1,1-7.4,2.7-7.4,6.6
	c0,5.7,6.6,7.4,19.6,7.4c4.6,0,11.2-0.3,18.6-0.3h33.7c1.3,2.2,3.4,3.6,6.4,3.6c7.7,0,14.3-15,14.3-28
	C317.3,71.2,314.1,67.2,309.8,67.2z M458.2,90.7c-2.5-0.8-2.8-4.6-2.8-9.9V27c0-5.3,0.3-9.1,2.8-9.9c4.2-1.1,6.7-2.7,6.7-6.2
	c0-6.3-9.4-8.3-24.4-8.3c-14.8,0-24.2,2-24.2,8.3c0,3.5,2.5,5,6.7,6.2c2.5,1,2.8,4.6,2.8,9.9v17.8c-0.7,1.3-1.4,1.5-7.3,1.5h-19.7
	c-5.9,0-6.6-0.3-7.3-1.5V27c0-5.3,0.3-9.1,2.8-9.9c4.2-1.1,6.7-2.7,6.7-6.2c0-6.3-9.2-8.3-24.2-8.3s-24.2,2-24.2,8.3
	c0,3.5,2.5,5,6.6,6.2c2.5,1,2.9,4.6,2.9,9.9v53.8c0,5.3-0.4,9-2.9,9.9c-4.1,1.1-6.6,2.7-6.6,6.2c0,6.4,9.2,8.3,24.2,8.3
	s24.2-1.8,24.2-8.3c0-3.5-2.5-5-6.7-6.2c-2.5-0.8-2.8-4.6-2.8-9.9V62.3c0.7-1.3,1.4-1.5,7.3-1.5h19.7c5.9,0,6.6,0.3,7.3,1.5v18.5
	c0,5.3-0.3,9-2.8,9.9c-4.2,1.1-6.7,2.7-6.7,6.2c0,6.4,9.4,8.3,24.2,8.3c15,0,24.4-1.8,24.4-8.3C464.9,93.4,462.4,91.8,458.2,90.7z
	 M571.4,64.9V31.6c0-9,0.7-13,4.2-14.6c4.1-1,7.6-2.5,7.6-6.4c0-6-9.5-8-20.6-8c-11.9,0-21.4,2-21.4,8.3c0,3.8,3.6,5.5,8.5,6.3
	c4.8,1.4,5.5,5.5,5.5,14.4v33.3c0,14.7-9.9,22.5-23.9,22.5c-14.3,0-23-7.8-23-22.5V27.3c0-4.6,0.3-9,3.1-10.1c4.3-1,7.3-2.5,7.3-6.3
	c0-6.3-9.8-8.3-25.1-8.3c-15,0-24.4,2-24.4,8.3c0,3.6,2.7,5,6.7,6.2c2.5,1,2.9,4.3,2.9,9.9v38.9c0,26.6,19.9,40,46.3,40
	C554.3,106,571.4,89.7,571.4,64.9z M680.1,2.6c-12.7,0-21.4,2.2-21.4,8.5c0,3.6,3.4,5.6,8.5,7c3.8,1.3,4.8,5.9,4.8,14.4v20.7
	c0,2.9-0.1,5.5-0.3,7.6c-11.5-13.2-26.5-32.1-40.6-48.2c-7.3-7.8-11.1-9.8-23.4-9.8c-13.3,0-20.6,2.1-20.6,8.1
	c0,3.9,4.1,5.9,8.7,7.3c2.9,1.1,4.1,5.3,4.1,10.8v46.1c0,7.3-0.4,13.3-3.6,14.4c-5.2,1.3-8.3,3.4-8.3,7c0,6.3,8.7,8.5,20,8.5
	c12.7,0,21.4-2.2,21.4-8.5c0-3.6-3.4-5.6-8.5-7c-3.8-1.3-4.8-5.9-4.8-14.4V54.6c0-4.6,0-9.8,0.3-14.4c12,12.9,31.9,36.7,46.2,53.8
	c6,6.7,10.4,11.5,16.4,11.5s9.7-3.9,9.7-10.9c0-7.4-0.4-18.1-0.4-28.3V32.6c0-7.3,0.4-13.3,3.6-14.4c5.3-1.3,8.4-3.4,8.4-7
	C700.3,4.9,691.4,2.6,680.1,2.6z M789.4,0.3c-3.1,0-5,1.4-6.3,3.5h-60.3c-1.1-2.1-3.2-3.5-6.2-3.5c-7.7,0-14.3,14.1-14.3,27.7
	c0,8.4,3.2,12.7,7.6,12.7c4.2,0,6.4-3.4,8.8-9.9c1.3-3.6,2.8-7.4,4.5-9.8c1.7-2.5,5.3-3.4,9.9-3.4h1.3c3.1,0,3.8,3.9,3.8,15v48
	c0,5.3-0.7,9-3.8,9.9c-5,1.1-8,2.7-8,6.3c0,6.4,10.2,8.3,26.6,8.3c16.2,0,26.5-1.8,26.5-8.3c0-3.6-2.8-5.2-7.8-6.4
	c-3.1-1-3.9-4.5-3.9-9.8v-48c0-11.1,0.7-15,3.8-15h1.3c4.6,0,8.3,0.8,9.9,3.4s3.2,6.2,4.5,9.8c2.4,6.6,4.6,9.9,8.8,9.9
	c4.3,0,7.7-4.3,7.7-12.7C803.7,14.4,796.9,0.3,789.4,0.3z"/>
</svg>
